X:1
T:Mister Edison is Working On It Now
T:Mister Edison is Working On It Now
T:Music by JAMES A. BRENNAN
T:Words bby JACK CADDIGAN
T:1917
T:1917
T:1917
T:1917
C:Music by JAMES A. BRENNAN
Z:Words bby JACK CADDIGAN
Z:1917
%%score 1 { 2 | 3 }
L:1/8
Q:1/4=114
M:2/4
K:Eb
V:1 treble nm="Voice"
V:2 treble nm="Piano"
V:3 bass 
V:1
"^Moderato" z2 | z4 | z4 | z4 | z4 | z4 | z4 | z4 | z4 |:"_Vamp" z4 | z4 :| G2 B2 | AG AF | %13
w: |||||||||||In this|war the world has|
w: |||||||||||||
w: |||||||||||War has|been with us since|
 G2 (B2 | B2) AG | AB (c2 | c)B AG | A2 G2 | F4 | B2 F(F | F)G A=A | B2 G(G | G)B =AG | FG =AB | %24
w: won- dered|_ At the|sub- ma- rine|_ and fight- ing|aer- o-|planes,|We don't won-|* der for we|know by thund|_ er, They're the|prod- uct of A-|
w: |||||||||||
w: Ad- am|_ And our|Home sweet Home|_ has been our|bat- tle-|field,|Plates and lift-|* ers ev- en|old ash sift-|* ers Are the|am- mu- ni- tion|
 c=A F2 | (B3 z | B3) z | G2 B2 | AG AF | G2 (B2 | B)c BG | F E2 G | B2 =B2 | (c4 | c3) B | %35
w: mer- i- can|brains.||Things like|that don't make us|wor- ry|_ We've got a|gen- ius who|stands a-|lone,|_ And|
w: |||||||||||
w: that we can|wield.|_|Soon we|all will be in|clo- ver|_ And here's the|rea- sone just|why we|will,|_ They|
 c=B cB | c3 =B | B=A BA | B2 =AG | F G2 B | c=A GF | (B4 | B) ||"^CHORUS" GB G |: AG (F2 | %45
w: all we've got to|do, When|we want some- thing|new Is get|Or- ange New|Jers- ey on the|phone.|_|Oh! Mis- ter|Ed- is- on|
w: ||||||||||
w: say he's got a|plan To|help the mar- ried|man That he's|found how to|keep a wo- man|still.|_|||
 F)=E FG | AG F(B | B2) cd | cB (G2 | G)B dB | (c4 | c)B GE | D2 F2 | A2 B2 | cd B(c | c3) B | %56
w: _ is such a|won- der- ful man,|_ Mis- ter|Ed- is- son|* is sim- ply|grand.|_ You know that|he gave|us the|talk- ing ma- chine|_ And|
w: |||||||||||
w: |||||||||||
 ED EF | G^F GB | d c2 (B | B)G BG | AG F2 | F=E FG | AG F(B | B)=A Bc | _d2 e2 | B2 =B2 | (c4 | %67
w: now he's goin' to|fool the Ger- man|sub- ma- rine|_ Oh! Mis- ter|Ed- is- on|_ we bring our|prob- lems to you|_ Be- cause you'll|work them|out some-|how|
w: |||||||||||
w: |||||||||||
 c2) AG | Fc c=B | c2 GF | EB B=A | B2 cd | ec BG | F=E FG |1 (E4 | E)G BG :|2 (E4 | E) z z2 |] %78
w: _ If this|war is goin' to|cease, There's one|thing to give us|peace, Mis- ter|Ed- is- on is|work- ing on it|now.|* Oh! Mis- ter|now.|_|
w: |||||||||||
w: |||||||||||
V:2
!f! [=EA]G | F[Fd] [=EBc][E=B] | [FAc]2 [DG]F | E[EB] [DAB][D=A] | [EGB]2 [E^Fc][=FBd] | %5
 [EGBe]c [C=Ec]G | [=A,EF][A,=E] [_A,DF][B,DG] | ([G,B,E]4 | [G,B,E]) z [EGBe] z |: G[G,E] B[^CG] | %10
 [DA][EG] [FA][DF] :|!mf! [EG]2 [^CB]2 | [DA][EG] [FA][DF] | [EG]2 ([FB]2 | [=EB]2) [EA]G | %15
 [CFA][C=EB] z [Cc]/[FA]/ | [=Ec][EB] [EA][EG] | [CFA]2 [C=EG]2 | [CF]4 | B[B,F] F[B,D] | %20
 [B,DF][B,DG] [B,DA][CE=A] | B[B,E] G[B,E] | [^CG][DB] [E=A][EG] | F[FG] [F=A][FB] | %24
 [Ec][E=A] [EF]2 | ([DFB]4 | [DFB]3) z | [EG]2 [^CB]2 | [DA][EG] [FA][DF] | [EG]2 ([DB]2 | %30
 [CB])[EGc] [EGB][EG] | [_DF] [DE]2 [DEG] | [_DEB]2 [DE=B]2 | ([CEc]A FG | [EB]3) [EB] | %35
 [Ec][E=B] [=Ec][EB] | [FAc]3 [E=AB] | [EB][E=A] [EB][EA] | [EGB]2 [^C=A]G | [DF] [EGA]2 [DFB] | %40
 [Ec][D=A] [EG][EF] | [DFB]B/B/ BB | B || G[^CB] G |:!mf! [CA]!f![CG] ([DF]2 | %45
 [DF])[D=E] [DF][DG] | [Cc][^CG] [DF]([DAB] | [DAB])[DA] [D^Fc]d | [Gc][DB] ([EG]2 | %49
 [EG])[EGB] [D_Gd][DGB] | [EGc]c/=B/ [EGc]c/B/ | [EGc]B GE | z [FAB] z [DAB] | z [DFB] z [DAB] | %54
 [DAc][DAd] [DAB]([DAc] | [DAc]3) [DB] | [B,E]D EF | G_G =GB | [E^Fd] [EFc]2 ([EGB] | %59
 [EGB])[EG] [^CB]G | [CA][^CG] ([DF]2 | [DF])[D=E] [DF][DG] | [CA][^CG] [DF]([DAB] | %63
 [DAB])[D=A] [D_AB][DAc] | [F_d]2 [Ge]2 | [GB]2 [G=B]F | ([Ec]E =EG | [Ac]2) [=EA]G | %68
 F[Fc] [=EBc][E=B] | [FAc]2 [DG]F | EB [DAB][D=A] | [EGB]2 [E^Fc][FBd] | [EGBe]c [C=EB]G | %73
 [=A,EF][A,=E] [_A,DF][B,DG] |1 [G,B,E]F/G/ dc | B z z2 :|2 [G,B,E]4 | [G,B,E] z [EGBe] z |] %78
V:3
 [C,B,]2 | [A,,A,][A,C] [G,,G,][B,C] | [F,,F,][A,C] [B,,A,]2 | [G,,G,][G,B,] [F,,F,][A,B,] | %4
 [E,,E,][G,B,] [=A,,=B,][_A,,_B,] | [G,,G,]2 [C,G,]2 | C,2 B,,2 | [E,,E,]C, B,,G,, | %8
 E,, z [E,,,E,,] z |: E,2 =E,2 | F,[A,B,] B,,[A,B,] :| E,[G,B,] =E,[G,B,] | F,[A,B,] B,,[A,B,] | %13
 E,[G,B,] _D,[G,B,] | C,_D CB, | A,G, F,2 | E,[B,C] C,[B,C] | [F,,F,]2 [G,,G,]2 | %18
 [A,,A,][E,E] [D,D][C,C] | [D,D]2 [B,,B,]2 | [A,,A,]2 [F,,F,][^F,,^F,] | [G,,G,]2 [E,,E,]2 | %22
 [=E,,=E,][G,B,] ^C,[G,B,] | B,,[F,B,] F,,[F,B,D] | C,[F,=A,] F,,[F,A,] | [B,,B,]C _A,B, | %26
 G,A, F,B, | E,[G,B,] =E,[G,B,] | F,[A,B,] B,,[A,B,] | E,[G,B,] B,,[G,B,] | E,[G,B,] B,,[G,B,] | %31
 [E,A,] [E,G,]2 [E,B,] | [E,G,]2 [E,G,]2 | [A,,A,][A,C] E,[A,C] | A,, [E,A,C]2 G, | %35
 [A,,A,][A,C] [G,,G,][B,C] | [F,,F,] [A,C]2 [^F,,^F,] | [G,,G,][G,B,] [F,,F,][A,B,] | %38
 [E,,E,][G,B,] [=E,,=E,][G,B,] | [F,,F,] [F,B,]2 [F,B,] | C,[F,=A,] F,,[F,A,] | [B,,B,] z z2 | z || %43
 z [=E,G,]2 |: [F,,F,][A,B,] B,,[A,B,] | [F,,F,][A,B,] B,,[A,B,] | [F,,F,][A,B,] B,,[A,B,] | %47
 [F,,F,][A,B,] B,,2 | [F,,F,][G,B,] B,,[G,B,] | [E,,E,][G,B,] B,,[A,B,] | [E,,E,][G,B,] B,,[G,B,] | %51
 [E,,E,]B, G,E, | !>!D,2 !>!F,2 | !>!A,2 !>!B,2 | [F,,F,][A,B,] D,[A,B,] | B,,=E, F,^F, | %56
 [E,G,] z z2 | z4 | [=A,,=A,] [A,,A,]2 ([B,,B,] | [B,,B,]) z [=E,G,]2 | [F,,F,][A,B,] B,,[A,B,] | %61
 [F,,F,][A,B,] B,,[A,B,] | [F,,F,][A,B,] B,,[A,B,] | [F,,F,][A,B,] B,,[A,B,] | %64
 B,,[E,G,_D] [E,,E,][E,G,D] | B,,[E,G,_D] [E,,E,][E,G,D] | [A,,A,][A,C] [G,,G,][B,C] | %67
 [F,,F,][A,C] [C,B,]2 | [A,,A,][A,C] [G,,G,][B,C] | [F,,F,][F,A,] [B,,A,]2 | %70
 [G,,G,][G,B,] [F,,F,][A,B,] | [E,,E,][G,B,] [=A,,=A,][_A,,_A,] | [G,,G,]2 [C,G,]2 | C,2 B,,2 |1 %74
 E,F,/G,/ DC | B, z z2 :|2 [E,,E,]C, B,,G,, | E,, z [E,,,E,,] z |] %78

